assets/Cat/Flat/cat_flat.svg

<svg width="32" height="32" viewBox="0 0 32 32" fill="none" xmlns="http://www.w3.org/2000/svg">
<path d="M14.9 30H17.03C17.27 30 17.45 29.77 17.39 29.55L15.5 21.6H12.5L14.41 29.62C14.47 29.84 14.67 30 14.9 30Z" fill="#D3883E"/>
<path d="M20.78 30H18.65C18.41 30 18.23 29.77 18.29 29.55L20.18 21.6H23.18L21.27 29.62C21.21 29.84 21.01 30 20.78 30Z" fill="#D3883E"/>
<path d="M21.41 3.17997C21.94 3.05997 22.5 2.98997 23.07 2.99997C26.85 3.03997 29.95 6.11997 30 9.89997C30.0274 12.0405 29.0957 13.9652 27.607 15.2689C27.8613 15.9647 28 16.7161 28 17.5V22.04C28 22.67 27.87 23.3 27.61 23.88L25.09 29.77C25.04 29.91 24.9 30 24.75 30H22.57C22.3 30 22.12 29.72 22.24 29.48L23.54 26.45C23.66 26.18 23.6 25.87 23.39 25.66L20.98 23.25C20.82 23.09 16.6812 20.7095 16.4512 20.7095L13.01 23V29.62C13.01 29.83 12.84 30 12.63 30H10.38C10.17 30 10 29.83 10 29.63V22.98L8.02618 19.002L6.02 17C3.8 17 2 15.2 2 12.98V12.76C2 12.34 2.34 12 2.76 12C3.01 12 3.23 11.82 3.28 11.57C3.66 9.62001 5.13 7.73001 7 7.30001V4.59001C7 4.21001 7.47 4.04001 7.72 4.32001L11.0304 8.00638L10.7677 8.9866L12.5395 9.99414C12.6913 10.3145 12.8026 10.6467 12.8825 11.0003L12.2374 11.9961L13.01 13.0109V13.42C13.01 13.87 13.48 14.17 13.89 13.97L14.0096 13.9119L15.0746 14.3057L15.9889 12.9492L17.0183 12.4485L17.9926 12.7606L18.9683 11.5097C19.2988 11.3698 19.6412 11.2584 19.9906 11.1758L20.9483 12.3622L21.9503 11.0154C23.8304 11.144 25.4907 12.072 26.5941 13.4621C27.4065 12.6179 27.9267 11.4908 27.99 10.25C28.14 7.37997 25.84 4.99997 23 4.99997C22.62 4.99997 22.24 5.03997 21.88 5.12997C21.47 5.21997 21.05 5.04997 20.82 4.69997C20.82 4.69497 20.8175 4.69247 20.815 4.68997C20.8125 4.68747 20.81 4.68497 20.81 4.67997C20.43 4.10997 20.74 3.32997 21.41 3.17997Z" fill="#F3AD61"/>
<path d="M11.76 8.83L11.02 8H10C9.45 8 9 8.45 9 9C9 9.55 9.45 10 10 10H12.5469C12.3469 9.57 12.07 9.18 11.76 8.83Z" fill="#D3883E"/>
<path d="M19.97 11.18C20.47 11.06 20.98 11 21.5 11C21.65 11 21.81 11.01 21.9699 11.02L21.97 14.38C21.97 14.93 21.52 15.38 20.97 15.38C20.42 15.38 19.97 14.93 19.97 14.38V11.18Z" fill="#D3883E"/>
<path d="M18.65 11.65L16.98 12.46V15.21C16.98 15.76 17.43 16.21 17.98 16.21C18.53 16.21 18.98 15.76 18.98 15.21V11.51C18.87 11.55 18.76 11.6 18.65 11.65Z" fill="#D3883E"/>
<path d="M15 17.0399C15.55 17.0399 16 16.5899 16 16.0399V12.9399L14 13.9099V16.0399C14 16.5899 14.45 17.0399 15 17.0399Z" fill="#D3883E"/>
<path d="M12.88 11C12.96 11.35 13 11.71 13 12.09V13H11.5C10.95 13 10.5 12.55 10.5 12C10.5 11.45 10.95 11 11.5 11H12.88Z" fill="#D3883E"/>
<path d="M8.72484 17.9025C8.46903 17.368 7.92358 17 7.29002 17H6.02002V18.59C6.02002 20.88 7.76002 22.76 10 22.98V20.09C10 20.09 10 20.09 10 20.09L8.72484 17.9025Z" fill="#FFDEA7"/>
<path d="M16.64 20.15H13V23H20.36C20.59 23 20.81 23.09 20.97 23.25L19.47 21.47C18.77 20.63 17.73 20.15 16.64 20.15Z" fill="#FFDEA7"/>
<path d="M6.02002 11.5871C6.02002 11.2674 6.24274 11.0199 6.51001 11.0199C6.78619 11.0199 7 11.2777 7 11.5871V12.4328C7 12.7422 6.78619 12.9897 6.51001 13C6.23383 13 6.02002 12.7422 6.02002 12.4328V11.5871Z" fill="#212121"/>
<path d="M3.44 12C3.68 12 3.81 12.27 3.67 12.46L2.25 14.37C2.09 13.94 2 13.47 2 12.98V12.76C2 12.34 2.34 12 2.76 12H3.44Z" fill="#212121"/>
</svg>

<svg xmlns="http://www.w3.org/2000/svg" width="32" height="32" fill="none"><path fill="#D3883E" d="M14.9 30h2.13c.24 0 .42-.23.36-.45L15.5 21.6h-3l1.91 8.02c.06.22.26.38.49.38ZM20.78 30h-2.13c-.24 0-.42-.23-.36-.45l1.89-7.95h3l-1.91 8.02c-.06.22-.26.38-.49.38Z"/><path fill="#F3AD61" d="M21.41 3.18c.53-.12 1.09-.19 1.66-.18 3.78.04 6.88 3.12 6.93 6.9a6.996 6.996 0 0 1-2.393 5.369c.254.696.393 1.447.393 2.231v4.54c0 .63-.13 1.26-.39 1.84l-2.52 5.89c-.05.14-.19.23-.34.23h-2.18c-.27 0-.45-.28-.33-.52l1.3-3.03c.12-.27.06-.58-.15-.79l-2.41-2.41c-.16-.16-4.299-2.54-4.529-2.54L13.01 23v6.62c0 .21-.17.38-.38.38h-2.25c-.21 0-.38-.17-.38-.37v-6.65l-1.974-3.978L6.02 17A4.02 4.02 0 0 1 2 12.98v-.22c0-.42.34-.76.76-.76.25 0 .47-.18.52-.43C3.66 9.62 5.13 7.73 7 7.3V4.59c0-.38.47-.55.72-.27l3.31 3.686-.262.98 1.771 1.008c.152.32.264.653.344 1.006l-.646.996.773 1.015v.409c0 .45.47.75.88.55l.12-.058 1.065.394.914-1.357 1.03-.5.974.312.975-1.251c.33-.14.673-.252 1.023-.334l.957 1.186 1.002-1.347a6.49 6.49 0 0 1 4.644 2.447 4.996 4.996 0 0 0 1.396-3.212C28.14 7.38 25.84 5 23 5c-.38 0-.76.04-1.12.13-.41.09-.83-.08-1.06-.43 0-.005-.003-.008-.005-.01-.003-.003-.005-.005-.005-.01a.981.981 0 0 1 .6-1.5Z"/><path fill="#D3883E" d="M11.76 8.83 11.02 8H10c-.55 0-1 .45-1 1s.45 1 1 1h2.547c-.2-.43-.477-.82-.787-1.17ZM19.97 11.18c.5-.12 1.01-.18 1.53-.18.15 0 .31.01.47.02v3.36c0 .55-.45 1-1 1s-1-.45-1-1v-3.2ZM18.65 11.65l-1.67.81v2.75c0 .55.45 1 1 1s1-.45 1-1v-3.7c-.11.04-.22.09-.33.14ZM15 17.04c.55 0 1-.45 1-1v-3.1l-2 .97v2.13c0 .55.45 1 1 1ZM12.88 11c.08.35.12.71.12 1.09V13h-1.5c-.55 0-1-.45-1-1s.45-1 1-1h1.38Z"/><path fill="#FFDEA7" d="M8.725 17.902A1.588 1.588 0 0 0 7.29 17H6.02v1.59A4.41 4.41 0 0 0 10 22.98v-2.89l-1.275-2.188ZM16.64 20.15H13V23h7.36c.23 0 .45.09.61.25l-1.5-1.78c-.7-.84-1.74-1.32-2.83-1.32Z"/><path fill="#212121" d="M6.02 11.587c0-.32.223-.567.49-.567.276 0 .49.258.49.567v.846c0 .31-.214.557-.49.567-.276 0-.49-.258-.49-.567v-.846ZM3.44 12c.24 0 .37.27.23.46l-1.42 1.91c-.16-.43-.25-.9-.25-1.39v-.22c0-.42.34-.76.76-.76h.68Z"/></svg>
